X: 23812
T: Little Katie Taylor
R: reel
M: 4/4
K: Dmajor
DEFA GEFE|DEFA defa|g2ed cAGE|FAGF EAGE|
DEFA GEFE|DEFA defa|g2ed cAGE|FAGE D4:|
d2fd adfa|bfaf gfed|cAA2 BGG2|AGFD EFGE|
defa g2fg|a2ge fdcA|ABce dBAG|(3FGA GED2:|
(3DED FA GEAF|(3DED FA d2 fa|geag fdcB|AB (3=cBA EFGE|
(3DED FA GEAF|(3DED FA d2 fa|geag fdcB|ABGE FD D2:|
fd (3fga g3 e|fd (3fga g2 ag|fdAF G2 FG|AB (3cBA dcAg|
fdfa g3 e|fdfa g2 ag|fddc AB (3cBA|EFGE FD D2:|

